docs/img/time.svg

<svg width="29" height="12" viewBox="0 0 29 12" fill="none" xmlns="http://www.w3.org/2000/svg">
<path d="M4.32068 11.2563C7.00867 11.2563 8.60535 9.1543 8.60535 5.59473C8.60535 4.25439 8.349 3.12646 7.85828 2.25488C7.14783 0.899902 5.92468 0.16748 4.37927 0.16748C2.07947 0.16748 0.453491 1.71289 0.453491 3.88086C0.453491 5.91699 1.91833 7.39648 3.9325 7.39648C5.17029 7.39648 6.17371 6.81787 6.67175 5.81445H6.69373C6.69373 5.81445 6.72302 5.81445 6.73035 5.81445C6.745 5.81445 6.79626 5.81445 6.79626 5.81445C6.79626 8.23145 5.88074 9.67432 4.33533 9.67432C3.42712 9.67432 2.724 9.17627 2.4823 8.37793H0.599976C0.914917 10.1138 2.38708 11.2563 4.32068 11.2563ZM4.3866 5.89502C3.17078 5.89502 2.30652 5.03076 2.30652 3.82227C2.30652 2.64307 3.21472 1.74219 4.39392 1.74219C5.57312 1.74219 6.48132 2.65771 6.48132 3.85156C6.48132 5.03076 5.59509 5.89502 4.3866 5.89502Z" fill="black"/>
<path d="M11.6965 11.1538C12.3923 11.1538 12.8683 10.6558 12.8683 9.99658C12.8683 9.33008 12.3923 8.83936 11.6965 8.83936C11.008 8.83936 10.5246 9.33008 10.5246 9.99658C10.5246 10.6558 11.008 11.1538 11.6965 11.1538ZM11.6965 5.66064C12.3923 5.66064 12.8683 5.16992 12.8683 4.51074C12.8683 3.84424 12.3923 3.35352 11.6965 3.35352C11.008 3.35352 10.5246 3.84424 10.5246 4.51074C10.5246 5.16992 11.008 5.66064 11.6965 5.66064Z" fill="black"/>
<path d="M19.7241 11H21.5332V9.02979H22.9614V7.43311H21.5332V0.431152H18.8672C16.9995 3.24365 15.5127 5.59473 14.5605 7.34521V9.02979H19.7241V11ZM16.311 7.36719C17.5415 5.19922 18.6401 3.46338 19.6509 1.96924H19.7534V7.47705H16.311V7.36719Z" fill="black"/>
<path d="M26.99 11H28.8797V0.431152H26.9973L24.2361 2.36475V4.18115L26.8655 2.33545H26.99V11Z" fill="black"/>
</svg>

<svg width="29" height="12" fill="none" xmlns="http://www.w3.org/2000/svg"><path d="M4.32 11.256c2.689 0 4.285-2.102 4.285-5.661 0-1.34-.256-2.469-.747-3.34C7.148.9 5.925.167 4.38.167 2.08.167.453 1.713.453 3.881c0 2.036 1.465 3.515 3.48 3.515 1.237 0 2.24-.578 2.739-1.582h.124c0 2.417-.915 3.86-2.46 3.86-.909 0-1.612-.498-1.854-1.296H.6c.315 1.736 1.787 2.878 3.72 2.878Zm.067-5.361c-1.216 0-2.08-.864-2.08-2.073 0-1.179.908-2.08 2.087-2.08 1.18 0 2.087.916 2.087 2.11 0 1.179-.886 2.043-2.094 2.043ZM11.697 11.154c.695 0 1.171-.498 1.171-1.157 0-.667-.476-1.158-1.171-1.158-.689 0-1.172.491-1.172 1.158 0 .659.483 1.157 1.171 1.157Zm0-5.493c.695 0 1.171-.491 1.171-1.15 0-.667-.476-1.157-1.171-1.157-.689 0-1.172.49-1.172 1.157 0 .659.483 1.15 1.171 1.15ZM19.724 11h1.81V9.03h1.427V7.433h-1.428V.431h-2.666C17 3.244 15.513 5.595 14.56 7.345V9.03h5.164V11Zm-3.413-3.633a79.584 79.584 0 0 1 3.34-5.398h.102v5.508h-3.442v-.11ZM26.99 11h1.89V.431h-1.883l-2.76 1.934V4.18l2.629-1.846h.124V11Z" fill="#000"/></svg>
